icons/bhi_linkedin.svg

<svg xmlns="http://www.w3.org/2000/svg" viewBox="0 0 512 512" enable-background="new 0 0 512 512"><path fill="#010101" d="M61.3 113.8h-.7c-36.9 0-60.6-25.2-60.6-56.9 0-32.3 24.6-56.9 61.9-56.9 37.6 0 60.9 24.6 61.2 56.9.4 31.7-23.5 56.9-61.8 56.9zm54.9 374.8h-109.8v-329.8h109.8v329.8zm395.1 0h-109.5v-176.4c0-44.3-16-74.6-55.6-74.6-30.3 0-48.3 20.3-56.3 39.9-2.7 7.3-3.7 17-3.7 27v184.1h-109.4c1.3-298.9 0-329.9 0-329.9h109.5v48h-.6c14.3-22.6 40.3-55.6 99.5-55.6 72.2 0 126.1 47.3 126.1 148.4v189.1z"/></svg>

<?xml version="1.0" encoding="utf-8"?>
<!-- Generator: Adobe Illustrator 19.2.0, SVG Export Plug-In . SVG Version: 6.00 Build 0)  -->
<svg version="1.1" id="Layer_1" xmlns="http://www.w3.org/2000/svg" xmlns:xlink="http://www.w3.org/1999/xlink" x="0px" y="0px"
	 viewBox="0 0 512 512" enable-background="new 0 0 512 512" xml:space="preserve">
<g>
	<path fill="#010101" d="M61.3,113.8h-0.7C23.7,113.8,0,88.6,0,56.9C0,24.6,24.6,0,61.9,0c37.6,0,60.9,24.6,61.2,56.9
		C123.5,88.6,99.6,113.8,61.3,113.8z M116.2,488.6H6.4V158.8h109.8V488.6z M511.3,488.6H401.8V312.2c0-44.3-16-74.6-55.6-74.6
		c-30.3,0-48.3,20.3-56.3,39.9c-2.7,7.3-3.7,17-3.7,27v184.1H176.8c1.3-298.9,0-329.9,0-329.9h109.5v48h-0.6
		c14.3-22.6,40.3-55.6,99.5-55.6c72.2,0,126.1,47.3,126.1,148.4V488.6z"/>
</g>
</svg>
